humanity-icon-theme/Humanity/devices/24/phone.svg

<?xml version="1.0" encoding="UTF-8" standalone="no"?>
<!-- Created with Inkscape (http://www.inkscape.org/) -->

<svg
   xmlns:svg="http://www.w3.org/2000/svg"
   xmlns="http://www.w3.org/2000/svg"
   xmlns:xlink="http://www.w3.org/1999/xlink"
   version="1.1"
   width="24"
   height="24"
   id="svg5490">
  <defs
     id="defs5492">
    <linearGradient
       id="linearGradient3706">
      <stop
         id="stop3708"
         style="stop-color:#ffffff;stop-opacity:1"
         offset="0" />
      <stop
         id="stop3710"
         style="stop-color:#ffffff;stop-opacity:0"
         offset="1" />
    </linearGradient>
    <linearGradient
       id="linearGradient3696">
      <stop
         id="stop3698"
         style="stop-color:#121214;stop-opacity:1"
         offset="0" />
      <stop
         id="stop3700"
         style="stop-color:#2f3134;stop-opacity:1"
         offset="0.20649855" />
      <stop
         id="stop3702"
         style="stop-color:#5a5a5a;stop-opacity:1"
         offset="1" />
    </linearGradient>
    <linearGradient
       id="linearGradient3640">
      <stop
         id="stop3642"
         style="stop-color:#b3b3b3;stop-opacity:1"
         offset="0" />
      <stop
         id="stop3650"
         style="stop-color:#ffffff;stop-opacity:1"
         offset="0.5" />
      <stop
         id="stop3644"
         style="stop-color:#f0f0f0;stop-opacity:1"
         offset="1" />
    </linearGradient>
    <linearGradient
       id="linearGradient3921">
      <stop
         id="stop3923"
         style="stop-color:#000000;stop-opacity:1"
         offset="0" />
      <stop
         id="stop3925"
         style="stop-color:#000000;stop-opacity:0"
         offset="1" />
    </linearGradient>
    <linearGradient
       id="linearGradient3143">
      <stop
         id="stop3145"
         style="stop-color:#1e1e1e;stop-opacity:1"
         offset="0" />
      <stop
         id="stop3147"
         style="stop-color:#606060;stop-opacity:1"
         offset="1" />
    </linearGradient>
    <linearGradient
       id="linearGradient9936">
      <stop
         id="stop9938"
         style="stop-color:#575757;stop-opacity:1"
         offset="0" />
      <stop
         id="stop9940"
         style="stop-color:#333333;stop-opacity:1"
         offset="1" />
    </linearGradient>
    <linearGradient
       id="linearGradient6592-2-7">
      <stop
         id="stop6594-0-2"
         style="stop-color:#ffffff;stop-opacity:0.27450982"
         offset="0" />
      <stop
         id="stop6596-2-5"
         style="stop-color:#ffffff;stop-opacity:0"
         offset="1" />
    </linearGradient>
    <linearGradient
       x1="12.9375"
       y1="8.4375"
       x2="15.25"
       y2="19.8125"
       id="linearGradient2882"
       xlink:href="#linearGradient6592-2-7"
       gradientUnits="userSpaceOnUse"
       gradientTransform="matrix(0.23809525,0,0,0.39999977,4.2857146,3.8000008)" />
    <radialGradient
       cx="25.146852"
       cy="10.236604"
       r="11"
       fx="25.146852"
       fy="10.236604"
       id="radialGradient2885"
       xlink:href="#linearGradient9936"
       gradientUnits="userSpaceOnUse"
       gradientTransform="matrix(0.44602008,-0.0022568,0.00214181,0.42329468,0.2959083,4.8138769)" />
    <radialGradient
       cx="26"
       cy="42.5"
       r="19"
       fx="26"
       fy="42.5"
       id="radialGradient2899"
       xlink:href="#linearGradient3921"
       gradientUnits="userSpaceOnUse"
       gradientTransform="matrix(0.47368421,0,0,0.10526314,-0.31578954,17.526317)" />
    <linearGradient
       x1="17"
       y1="20"
       x2="17"
       y2="19"
       id="linearGradient3646"
       xlink:href="#linearGradient3640"
       gradientUnits="userSpaceOnUse" />
    <linearGradient
       x1="8"
       y1="20"
       x2="8"
       y2="19"
       id="linearGradient3648"
       xlink:href="#linearGradient3640"
       gradientUnits="userSpaceOnUse" />
    <linearGradient
       x1="12"
       y1="22"
       x2="12"
       y2="19"
       id="linearGradient3652"
       xlink:href="#linearGradient3640"
       gradientUnits="userSpaceOnUse" />
    <linearGradient
       x1="13"
       y1="13"
       x2="24"
       y2="13"
       id="linearGradient3674"
       xlink:href="#linearGradient3696"
       gradientUnits="userSpaceOnUse"
       gradientTransform="matrix(0.45344317,0,0,1.5281237,1.1173646,-16.010232)"
       spreadMethod="reflect" />
    <linearGradient
       x1="10.946621"
       y1="-6.4135342"
       x2="11.158643"
       y2="26.157894"
       id="linearGradient3712"
       xlink:href="#linearGradient3706"
       gradientUnits="userSpaceOnUse" />
    <linearGradient
       x1="18.500013"
       y1="43.473183"
       x2="18.500013"
       y2="3.4528644"
       id="linearGradient3716"
       xlink:href="#linearGradient3143"
       gradientUnits="userSpaceOnUse"
       gradientTransform="matrix(0.49999973,0,0,0.52473347,-0.25000181,0.18816643)" />
  </defs>
  <path
     d="M 21,22 A 9,2 0 0 1 3,22 9,2 0 1 1 21,22 z"
     id="path3919"
     style="opacity:0.5;fill:url(#radialGradient2899);fill-opacity:1;stroke:none" />
  <path
     d="m 6.5,1.5000004 11,0 c 0.395714,0 1,1.0740676 1,1.4999996 l 0,18 c 0,0.425932 -0.604286,1.5 -1,1.5 l -11,0 C 6.1042854,22.5 5.5000004,21.425932 5.5000004,21 l 0,-18 c 0,-0.425932 0.604285,-1.4999996 0.9999996,-1.4999996 z"
     id="rect5508"
     style="fill:url(#linearGradient3716);fill-opacity:1;stroke:#000000;stroke-width:1.00000083;stroke-linecap:round;stroke-linejoin:miter;stroke-miterlimit:4;stroke-opacity:1" />
  <path
     d="m 13.75,20.000205 a 1.75,1.7497946 0 0 1 -3.5,0 1.75,1.7497946 0 1 1 3.5,0 z"
     id="path6724"
     style="fill:url(#linearGradient3652);fill-opacity:1;stroke:none" />
  <rect
     width="10"
     height="12"
     rx="0"
     ry="0"
     x="7"
     y="5"
     id="rect4140"
     style="fill:url(#radialGradient2885);fill-opacity:1;fill-rule:evenodd;stroke:none;stroke-width:0.94886303;marker:none;visibility:visible;display:inline;overflow:visible;enable-background:accumulate" />
  <path
     d="M 7,5 17,5 17,8.2000013 7,11 7,5 z"
     id="rect6588"
     style="fill:url(#linearGradient2882);fill-opacity:1;stroke:none" />
  <rect
     width="1.9999988"
     height="0.99999189"
     rx="1.7763568e-15"
     ry="0"
     x="7"
     y="19"
     id="rect3675"
     style="fill:url(#linearGradient3648);fill-opacity:1;stroke:none" />
  <rect
     width="2"
     height="1"
     rx="3.5527137e-15"
     ry="0"
     x="15"
     y="19"
     id="rect3677"
     style="fill:url(#linearGradient3646);fill-opacity:1;stroke:none" />
  <rect
     width="4"
     height="1"
     rx="0.18534884"
     ry="0.27802327"
     x="10"
     y="3"
     id="rect4157"
     style="fill:#323232;fill-opacity:1;fill-rule:evenodd;stroke:none;stroke-width:0.55318499;marker:none;visibility:visible;display:inline;overflow:visible;enable-background:accumulate" />
  <path
     d="m 7.2272737,16.5 9.5454523,0"
     id="path3890"
     style="fill:none;stroke:url(#linearGradient3674);stroke-width:1;stroke-linecap:butt;stroke-linejoin:round;stroke-miterlimit:3.42857146;stroke-opacity:1;stroke-dasharray:none;stroke-dashoffset:0;marker:none;visibility:visible;display:inline;overflow:visible;enable-background:accumulate" />
  <rect
     width="9.0075178"
     height="11.007518"
     rx="0"
     ry="0"
     x="7.5413537"
     y="5.451128"
     id="rect3704"
     style="opacity:0.15;fill:none;stroke:url(#linearGradient3712);stroke-width:0.94886303;stroke-opacity:1;marker:none;visibility:visible;display:inline;overflow:visible;enable-background:accumulate" />
  <path
     d="M 6.5625,2.5 C 6.5228337,2.6294731 6.5,2.809519 6.5,2.78125 L 6.5,21.25 c 0,-0.02743 0.026628,0.13222 0.0625,0.25 l 10.875,0 C 17.473372,21.38222 17.5,21.222566 17.5,21.25 l 0,-18.46875 C 17.5,2.8095193 17.477166,2.6294732 17.4375,2.5 l -10.875,0 z"
     id="path3714"
     style="opacity:0.1;fill:none;stroke:#ffffff;stroke-width:1.00000083;stroke-linecap:round;stroke-linejoin:miter;stroke-miterlimit:4;stroke-opacity:1" />
</svg>

<?xml version="1.0" encoding="UTF-8" standalone="no"?>
<!-- Created with Inkscape (http://www.inkscape.org/) -->
<svg id="svg5490" xmlns="http://www.w3.org/2000/svg" height="24" width="24" version="1.1" xmlns:xlink="http://www.w3.org/1999/xlink">
 <defs id="defs5492">
  <linearGradient id="linearGradient3640">
   <stop id="stop3642" style="stop-color:#b3b3b3" offset="0"/>
   <stop id="stop3650" style="stop-color:#fff" offset=".5"/>
   <stop id="stop3644" style="stop-color:#f0f0f0" offset="1"/>
  </linearGradient>
  <linearGradient id="linearGradient2882" y2="19.812" gradientUnits="userSpaceOnUse" x2="15.25" gradientTransform="matrix(.23810 0 0 0.4 4.2857 3.8)" y1="8.4375" x1="12.938">
   <stop id="stop6594-0-2" style="stop-color:#fff;stop-opacity:.27451" offset="0"/>
   <stop id="stop6596-2-5" style="stop-color:#fff;stop-opacity:0" offset="1"/>
  </linearGradient>
  <radialGradient id="radialGradient2885" gradientUnits="userSpaceOnUse" cy="10.237" cx="25.147" gradientTransform="matrix(.44602 -.0022568 .0021418 .42329 .29591 4.8139)" r="11">
   <stop id="stop9938" style="stop-color:#575757" offset="0"/>
   <stop id="stop9940" style="stop-color:#333" offset="1"/>
  </radialGradient>
  <radialGradient id="radialGradient2899" gradientUnits="userSpaceOnUse" cy="42.5" cx="26" gradientTransform="matrix(.47368 0 0 .10526 -.31579 17.526)" r="19">
   <stop id="stop3923" offset="0"/>
   <stop id="stop3925" style="stop-opacity:0" offset="1"/>
  </radialGradient>
  <linearGradient id="linearGradient3646" y2="19" xlink:href="#linearGradient3640" gradientUnits="userSpaceOnUse" x2="17" y1="20" x1="17"/>
  <linearGradient id="linearGradient3648" y2="19" xlink:href="#linearGradient3640" gradientUnits="userSpaceOnUse" x2="8" y1="20" x1="8"/>
  <linearGradient id="linearGradient3652" y2="19" xlink:href="#linearGradient3640" gradientUnits="userSpaceOnUse" x2="12" y1="22" x1="12"/>
  <linearGradient id="linearGradient3674" y2="13" spreadMethod="reflect" gradientUnits="userSpaceOnUse" x2="24" gradientTransform="matrix(.45344 0 0 1.5281 1.1174 -16.01)" y1="13" x1="13">
   <stop id="stop3698" style="stop-color:#121214" offset="0"/>
   <stop id="stop3700" style="stop-color:#2f3134" offset=".20650"/>
   <stop id="stop3702" style="stop-color:#5a5a5a" offset="1"/>
  </linearGradient>
  <linearGradient id="linearGradient3712" y2="26.158" gradientUnits="userSpaceOnUse" x2="11.159" y1="-6.4135" x1="10.947">
   <stop id="stop3708" style="stop-color:#fff" offset="0"/>
   <stop id="stop3710" style="stop-color:#fff;stop-opacity:0" offset="1"/>
  </linearGradient>
  <linearGradient id="linearGradient3716" y2="3.4529" gradientUnits="userSpaceOnUse" x2="18.5" gradientTransform="matrix(0.5 0 0 .52473 -0.25 .18817)" y1="43.473" x1="18.5">
   <stop id="stop3145" style="stop-color:#1e1e1e" offset="0"/>
   <stop id="stop3147" style="stop-color:#606060" offset="1"/>
  </linearGradient>
 </defs>
 <path id="path3919" style="opacity:.5;fill:url(#radialGradient2899)" d="m21 22a9 2 0 0 1 -18 0 9 2 0 1 1 18 0z"/>
 <path id="rect5508" style="stroke:#000;stroke-linecap:round;fill:url(#linearGradient3716)" d="m6.5 1.5h11c0.39571 0 1 1.0741 1 1.5v18c0 0.42593-0.60429 1.5-1 1.5h-11c-0.3957 0-1-1.074-1-1.5v-18c0-0.42593 0.60428-1.5 1-1.5z"/>
 <path id="path6724" style="fill:url(#linearGradient3652)" d="m13.75 20a1.75 1.7498 0 0 1 -3.5 0 1.75 1.7498 0 1 1 3.5 0z"/>
 <rect id="rect4140" style="fill-rule:evenodd;fill:url(#radialGradient2885)" rx="0" ry="0" height="12" width="10" y="5" x="7"/>
 <path id="rect6588" style="fill:url(#linearGradient2882)" d="m7 5h10v3.2l-10 2.8v-6z"/>
 <rect id="rect3675" style="fill:url(#linearGradient3648)" rx="1.7764e-15" ry="0" height=".99999" width="2" y="19" x="7"/>
 <rect id="rect3677" style="fill:url(#linearGradient3646)" rx="3.5527e-15" ry="0" height="1" width="2" y="19" x="15"/>
 <rect id="rect4157" style="fill-rule:evenodd;fill:#323232" rx=".18535" ry=".27802" height="1" width="4" y="3" x="10"/>
 <path id="path3890" style="stroke-linejoin:round;stroke:url(#linearGradient3674);stroke-miterlimit:3.4286;fill:none" d="m7.2273 16.5h9.5455"/>
 <rect id="rect3704" style="opacity:.15;stroke-width:.94886;stroke:url(#linearGradient3712);fill:none" rx="0" ry="0" height="11.008" width="9.0075" y="5.4511" x="7.5414"/>
 <path id="path3714" style="opacity:.1;stroke:#fff;stroke-linecap:round;fill:none" d="m6.5625 2.5c-0.0397 0.1295-0.0625 0.3095-0.0625 0.2812v18.469c0-0.02743 0.026628 0.13222 0.0625 0.25h10.875c0.035-0.118 0.062-0.277 0.062-0.25v-18.469c0 0.0285-0.023-0.1515-0.062-0.281h-10.875z"/>
</svg>
